X: 137020
T: PADDY THE PIPER
Q: "Irish Jig."
R: Jig.
%R: jig
B: James Kerr "Merry Melodies" v.1 p.37 s.0 #20
Z: 2016 John Chambers <jc:trillian.mit.edu>
M: 6/8
L: 1/8
K: A
uE |\
EAc e2f | edc B2d | | cAe dBf | A3 uG2uE |\
EAc ue2ue | edc B2B | dcA cBG | B3 A2 :|\
uA |\
Ace ua2ua | agf e2e | fdB Bdf | A3 G2B |
Bc^d efg | c^de fga | gfe fe^d | efe efg |\
aec Ace | edc B2B | cde fdB | A3 G2E |\
EAc e2e | edc B2B | dcA cBG | B3 A2 H|]

%%sep 1 1 500
%%sep 1 1 500

